X:22
T:Valse des chevaux de bois (D. Denechau)
C:Trad 1, 83
M:3/4
L:1/4
K:C
e2c|A3|a2f|d2d|efe|dcB|d3|c3|\
e2c|A3|a2f|d2d|efe|dBc|A3-|A3:|
|:A/c/|e e/f/ e/c/|A/e/ c/A/ c/e/|f f/a/ d/f/|B3|\
efe|1 dcB|d3|c3:|2 dBc|A3-|A3||
|:DFA|BAF|CE>A|BAF|E3-|E3|FE>D|F/E/ D/F/ E/D/|
D F/D/ A/D/|BAF|C E/C/ A/C/|BAF|E3-|Eed|B3|A3:|
